X:2
T:1.2) Grogan's
M:6/8
L:1/8
K:C
G,|:CEC ECE|CDE DCA,|G,A,C EGc|AcA GED|
CEC ECE|GAG ECA,|G,A,C EGc|1AGE C2G,:|2AGE CEG|]!
|:c2c GEC|DCA, CA,G,|CEG c2B|Adc BGF|
E^DE GE=D|CDE DCA,|G,A,C EGc|1AGE CEG:|2AGE C2|]
